X:24
T:Himts Hirs, Thevs
Z:id:hn-hornpipe-89
M:C|
K:D
AB|cege dBAG|GFGB GBdB|cAec ded|fded Aefd|c


*****************************


11800 1 1.0346656 

<starto] FGAB | ABcd g2 (3agc | dddB c2Ac ||
|: dgfd | e2fe g3a | agfe agec | AGA^G=GAB cAAF| E2ED A,G,CE


*****************************


11900 1 1.1971744 

<start>
S:teansy' Bairhe's Of the moyed gaalay H|Tand 4 of S?y
R:hi-jornpipe
W:Ith toy's
T:aptyl hess of 


*****************************


12000 1 1.8657228 

<start>
